X: 40368
T: Tom Dowd's Favourite
R: reel
M: 4/4
K: Eminor
B~E3 GEDE|GEDE G2GA|B~E3 GEDE|GABG A2GA|
B~E3 GEDE|GEDE G2GA|B~E3 GEDE|GABG A2BA||
G2GF GBdB|GBdB A2BA|G2GF GABd|gedB A2BA|
G2GF GBdB|GBdB A2BA|G2GF GABd|gedB A2GA||

